!!!!SEGMENT: pl-kk--kk-i-328--006_constanzi--beatus-vir-in-memoria.krn
!!!cenid: 17xx:2144
!!!COM: Constanzi
!!!COM-rismid: pe50046616
!!!CDT:
!!!CNT:
!!!OPR: Beatus vir
!!!OTL: In memoria
!!!OMV: 006
!!!PDT:
!!!AGN: Sacred
!!!SMS-siglum: PL-Kk
!!!SMS-shelfmark: Kk.I.328
!!!SMS-shelfwork: 001-006 M
!!!SMS-variant:
!!!SMS-altvar:
!!!NIFC-rismid: 1001145915
!!!URL-scan: http://repozytorium.nifc.pl/skany/pl-kk-nut--i-328
!!!ONB-nifc: UWAGA: części Beatus vir: 1. Beatus vir, 2. Potens in terra, 3. Gloria et divitiae, 4. Exortum est 5. Iucundus homo, 6. In memoria, 7. Paratum cor eius, 8. Peccator videbit, 9. Gloria patri
!!!key:
**kern	**fba	**kern	**kern	**kern	**kern	**kern	**text	**kern
*part7	*part7	*part6	*part5	*part4	*part3	*part2	*part2	*part1
*staff7	*	*staff6	*staff5	*staff4	*staff3	*staff2	*staff2	*staff1
*Iorgan	*	*Iempty	*Itenor	*Ialto	*Ivox	*Ialto	*	*Ivox
*I"Organo	*	*I"Baſso di Ripieno	*I"Tenore di Ripieno	*I"Alto di Ripieno	*I"Canto di ripieno	*I"Alto	*	*I"Canto
*I'org	*	*I'B rip	*I'T rip	*I'A rip	*I'S rip	*I'A	*	*I'S
*clefF4	*	*clefF4	*clefC4	*clefC3	*clefC1	*clefC3	*	*clefC1
*k[f#c#]	*	*k[f#c#]	*k[f#c#]	*k[f#c#]	*k[f#c#]	*k[f#c#]	*	*k[f#c#]
*D:	*	*D:	*D:	*D:	*D:	*D:	*	*D:
*M2/4	*	*M2/4	*M2/4	*M2/4	*M2/4	*M2/4	*	*M2/4
=1	=1	=1	=1	=1	=1	=1	=1	=1
!LO:TX:a:t=lit.	!	!	!	!	!	!	!	!
!LO:TX:a:t=Alto Solo	!	!	!	!	!	!LO:TX:b:t=6	!	!
!LO:TX:a:B:t=Allo Moderato	!	!	!	!	!LO:N:is=00	!LO:TX:a:t=Solo	!	!LO:TX:a:B:t=Allegro moderato
!LO:TX:b:t=In memoria	!	!LO:TX:a:t=In memoria Tacet	!LO:TX:a:t=In memoria eterna Tacet	!LO:TX:a:t=In memoria Tacet	!LO:TX:a:t=In memoria eterna Tacet	!LO:TX:a:B:t=Allo Moderato	!	!LO:TX:a:t=In memoria Tacet
8D\L	.	2ryy	2ryy	2ryy	2ryy	0r	.	2ryy
8E\	.	.	.	.	.	.	.	.
8F#\	.	.	.	.	.	.	.	.
8D\J	.	.	.	.	.	.	.	.
=2	=2	=2	=2	=2	=2	=2	=2	=2
8E\L	.	2ryy	2ryy	2ryy	2ryy	.	.	2ryy
8D\	.	.	.	.	.	.	.	.
8C#\	.	.	.	.	.	.	.	.
8AA\J	.	.	.	.	.	.	.	.
=3	=3	=3	=3	=3	=3	=3	=3	=3
8D\L	.	2ryy	2ryy	2ryy	2ryy	.	.	2ryy
8E\	.	.	.	.	.	.	.	.
8F#\	.	.	.	.	.	.	.	.
8G\J	.	.	.	.	.	.	.	.
=4	=4	=4	=4	=4	=4	=4	=4	=4
!LO:TX:t=P:problem:mixed beam	!	!	!	!	!	!	!	!
8A\L	.	2ryy	2ryy	2ryy	2ryy	.	.	2ryy
8G\	.	.	.	.	.	.	.	.
8A\	.	.	.	.	.	.	.	.
8AA/J	.	.	.	.	.	.	.	.
!LO:LB:g=original	!	!	!	!	!	!	!	!
=5	=5	=5	=5	=5	=5	=5	=5	=5
!	!	!	!	!	!	!LO:N:vis=0	!	!
8d\L	.	2ryy	2ryy	2ryy	2ryy	1r	.	2ryy
8F#\	.	.	.	.	.	.	.	.
8G\	.	.	.	.	.	.	.	.
8A\J	.	.	.	.	.	.	.	.
=6	=6	=6	=6	=6	=6	=6	=6	=6
8D/L	.	2ryy	2ryy	2ryy	2ryy	.	.	2ryy
8AA/J	.	.	.	.	.	.	.	.
4DD/	.	.	.	.	.	.	.	.
=7	=7	=7	=7	=7	=7	=7	=7	=7
!LO:TX:a:t=Al.	!	!	!	!	!	!	!	!
8D\L	.	2ryy	2ryy	2ryy	2ryy	8a\	In	2ryy
8E\	.	.	.	.	.	4a\	me-	.
8F#\	.	.	.	.	.	.	.	.
8D\J	.	.	.	.	.	8b\	.	.
=8	=8	=8	=8	=8	=8	=8	=8	=8
8E/L	.	2ryy	2ryy	2ryy	2ryy	8g\	-mo-	2ryy
8D/	.	.	.	.	.	4g\	-ria	.
8C#/	.	.	.	.	.	.	.	.
8AA/J	.	.	.	.	.	8a\	E-	.
!	!	!	!	!	!	!LO:LB:g=original	!	!
=9	=9	=9	=9	=9	=9	=9	=9	=9
8D\L	.	2ryy	2ryy	2ryy	2ryy	8f#\L	-ter-	2ryy
8D\	.	.	.	.	.	16g\L	.	.
.	.	.	.	.	.	16a\JJ	.	.
8G\	.	.	.	.	.	8g\L	.	.
8G\J	.	.	.	.	.	8f#\J	.	.
!LO:LB:g=original	!	!	!	!	!	!	!	!
=10	=10	=10	=10	=10	=10	=10	=10	=10
8A\L	6 4	2ryy	2ryy	2ryy	2ryy	4f#W\	.	2ryy
8A\	.	.	.	.	.	.	.	.
8A\	5 #3	.	.	.	.	4e\	-na	.
8A\J	.	.	.	.	.	.	.	.
=11	=11	=11	=11	=11	=11	=11	=11	=11
8D\L	.	2ryy	2ryy	2ryy	2ryy	8a\	e-	2ryy
8E\	.	.	.	.	.	4a\	-rit	.
8F#\	.	.	.	.	.	.	.	.
8D\J	.	.	.	.	.	8b\	.	.
=12	=12	=12	=12	=12	=12	=12	=12	=12
8E/L	.	2ryy	2ryy	2ryy	2ryy	8g\	e-	2ryy
8D/	.	.	.	.	.	4g\	.	.
8C#/	.	.	.	.	.	.	.	.
8AA/J	.	.	.	.	.	8a\	.	.
!	!	!	!	!	!	!LO:LB:g=original	!	!
=13	=13	=13	=13	=13	=13	=13	=13	=13
8D\L	.	2ryy	2ryy	2ryy	2ryy	16f#\LL	.	2ryy
.	.	.	.	.	.	16d\	.	.
8D\	.	.	.	.	.	16a\	.	.
.	.	.	.	.	.	16f#\JJ	.	.
8D\	.	.	.	.	.	8dd\	.	.
8D\J	.	.	.	.	.	8f#\	-rit	.
=14	=14	=14	=14	=14	=14	=14	=14	=14
8A\L	6 5	2ryy	2ryy	2ryy	2ryy	4f#W\	ius-	2ryy
8A\	.	.	.	.	.	.	.	.
8A\	5 3	.	.	.	.	4e\	-tus	.
8A\J	.	.	.	.	.	.	.	.
!LO:PB:g=original	!	!	!	!	!	!	!	!
=15	=15	=15	=15	=15	=15	=15	=15	=15
8E\L	.	2ryy	2ryy	2ryy	2ryy	8e\	ab	2ryy
8E\	#	.	.	.	.	8f#\	au-	.
8E\	.	.	.	.	.	[4g#X\	-di-	.
8E\J	.	.	.	.	.	.	.	.
=16	=16	=16	=16	=16	=16	=16	=16	=16
8E\L	.	2ryy	2ryy	2ryy	2ryy	8g#\]	.	2ryy
8E\	.	.	.	.	.	8a\	-ti-	.
8E\	.	.	.	.	.	8b\	-o-	.
8E\J	.	.	.	.	.	8cc#\	-ne	.
!	!	!	!	!	!	!LO:LB:g=original	!	!
=17	=17	=17	=17	=17	=17	=17	=17	=17
8E\L	.	2ryy	2ryy	2ryy	2ryy	8b\L	ma-	2ryy
8E\	.	.	.	.	.	8cc#\J	.	.
8E\	7	.	.	.	.	4dd\	-la	.
8E\J	.	.	.	.	.	.	.	.
=18	=18	=18	=18	=18	=18	=18	=18	=18
8E\L	.	2ryy	2ryy	2ryy	2ryy	8dd\L	non	2ryy
8E\	.	.	.	.	.	8ee\	.	.
8E\	.	.	.	.	.	8dd\J	.	.
8E\J	.	.	.	.	.	8cc#\	ti-	.
=19	=19	=19	=19	=19	=19	=19	=19	=19
8E\L	.	2ryy	2ryy	2ryy	2ryy	8b\L	-me-	2ryy
8E\	.	.	.	.	.	8cc#\J	.	.
8E\	.	.	.	.	.	[4b\	.	.
8E\J	.	.	.	.	.	.	.	.
!LO:LB:g=original	!	!	!	!	!	!	!	!
=20	=20	=20	=20	=20	=20	=20	=20	=20
8E\L	.	2ryy	2ryy	2ryy	2ryy	8b\L]	.	2ryy
8E\	.	.	.	.	.	8a\	.	.
8E\	.	.	.	.	.	8g#X\	.	.
8E\J	.	.	.	.	.	8f#\J	.	.
!!linebreak:original
=21	=21	=21	=21	=21	=21	=21	=21	=21
8E\L	.	2ryy	2ryy	2ryy	2ryy	8g#X\L	.	2ryy
8E\	#	.	.	.	.	8f#\J	.	.
8E\	.	.	.	.	.	4e\	-bit	.
8E\J	.	.	.	.	.	.	.	.
!	!	!	!	!	!	!LO:LB:g=original	!	!
=22	=22	=22	=22	=22	=22	=22	=22	=22
8G#X\L	6	2ryy	2ryy	2ryy	2ryy	4b\	non	2ryy
8G#\	.	.	.	.	.	.	.	.
8G#\	.	.	.	.	.	4e\	ti-	.
8G#\J	.	.	.	.	.	.	.	.
=23	=23	=23	=23	=23	=23	=23	=23	=23
8A\L	.	2ryy	2ryy	2ryy	2ryy	16cc#\LL	-me-	2ryy
.	.	.	.	.	.	16dd\	.	.
8A\	.	.	.	.	.	16cc#\	.	.
.	.	.	.	.	.	16b\JJ	.	.
8A\	.	.	.	.	.	16cc#\LL	.	.
.	.	.	.	.	.	16a\	.	.
8A\J	.	.	.	.	.	16g#X\	.	.
.	.	.	.	.	.	16a\JJ	.	.
=24	=24	=24	=24	=24	=24	=24	=24	=24
*	*	*	*	*	*	*2\right	*	*
8A\L	.	2ryy	2ryy	2ryy	2ryy	2eW\	.	2ryy
8A\	.	.	.	.	.	.	.	.
8A\	.	.	.	.	.	.	.	.
8A\J	.	.	.	.	.	.	.	.
!LO:LB:g=original	!	!	!	!	!	!	!	!
=25	=25	=25	=25	=25	=25	=25	=25	=25
8G#X\L	.	2ryy	2ryy	2ryy	2ryy	16b\LL	.	2ryy
.	.	.	.	.	.	16cc#\	.	.
8G#\	6	.	.	.	.	16b\	.	.
.	.	.	.	.	.	16a\JJ	.	.
8G#\	.	.	.	.	.	16b\LL	.	.
.	.	.	.	.	.	16g#X\	.	.
8G#\J	.	.	.	.	.	16f#\	.	.
.	.	.	.	.	.	16g#\JJ	.	.
!	!	!	!	!	!	!LO:LB:g=original	!	!
=26	=26	=26	=26	=26	=26	=26	=26	=26
8G#X\L	.	2ryy	2ryy	2ryy	2ryy	2eW\	.	2ryy
8G#\	.	.	.	.	.	.	.	.
8G#\	.	.	.	.	.	.	.	.
8G#\J	.	.	.	.	.	.	.	.
=27	=27	=27	=27	=27	=27	=27	=27	=27
8F#\L	.	2ryy	2ryy	2ryy	2ryy	16a\LL	.	2ryy
.	.	.	.	.	.	16b\	.	.
8F#\	.	.	.	.	.	16a\	.	.
.	.	.	.	.	.	16g#X\JJ	.	.
8F#\	.	.	.	.	.	16a\LL	.	.
.	.	.	.	.	.	16f#\	.	.
8F#\J	.	.	.	.	.	16e\	.	.
.	.	.	.	.	.	16f#\JJ	.	.
=28	=28	=28	=28	=28	=28	=28	=28	=28
8D#X\L	6	2ryy	2ryy	2ryy	2ryy	2B/	.	2ryy
8D#\	.	.	.	.	.	.	.	.
8D#\	.	.	.	.	.	.	.	.
8D#\J	.	.	.	.	.	.	.	.
!!pagebreak:original
=29	=29	=29	=29	=29	=29	=29	=29	=29
4E\	#3	2ryy	2ryy	2ryy	2ryy	8e\	-bit	2ryy
.	.	.	.	.	.	8e\	non	.
4Dn\	#4	.	.	.	.	8f#\	non	.
.	.	.	.	.	.	8g#X\	ti-	.
!LO:LB:g=original	!	!	!	!	!	!	!	!
=30	=30	=30	=30	=30	=30	=30	=30	=30
!LO:TX:t=P:problem:mixed beam	!	!	!	!	!	!	!	!
8C#/L	6	2ryy	2ryy	2ryy	2ryy	4a\	-me-	2ryy
8A\	.	.	.	.	.	.	.	.
8G#X\	.	.	.	.	.	4b\	-bit	.
8E\J	.	.	.	.	.	.	.	.
!	!	!	!	!	!	!LO:LB:g=original	!	!
=31	=31	=31	=31	=31	=31	=31	=31	=31
!LO:TX:t=P:problem:mixed beam	!	!	!	!	!	!	!	!
8AA/L	.	2ryy	2ryy	2ryy	2ryy	4cc#\	non	2ryy
8A\	.	.	.	.	.	.	.	.
8G#X\	.	.	.	.	.	4b\	non	.
8E\J	.	.	.	.	.	.	.	.
=32	=32	=32	=32	=32	=32	=32	=32	=32
!LO:TX:t=P:problem:mixed beam	!	!	!	!	!	!	!	!
8AA/L	.	2ryy	2ryy	2ryy	2ryy	4a\	non	2ryy
8A\	.	.	.	.	.	.	.	.
8G#X\	.	.	.	.	.	4b\	ti-	.
8E\J	.	.	.	.	.	.	.	.
=33	=33	=33	=33	=33	=33	=33	=33	=33
!LO:TX:t=P:problem:mixed beam	!	!	!	!	!	!	!	!
8A\L	.	2ryy	2ryy	2ryy	2ryy	4cc#\	-me-	2ryy
8AA/J	.	.	.	.	.	.	.	.
!LO:TX:t=P:problem:mixed beam	!	!	!	!	!	!	!	!
8E\L	#	.	.	.	.	4b\	-bit	.
8EE/J	3	.	.	.	.	.	.	.
=34	=34	=34	=34	=34	=34	=34	=34	=34
8A\L	.	2ryy	2ryy	2ryy	2ryy	4a\	non	2ryy
8B\	.	.	.	.	.	.	.	.
8c#\	.	.	.	.	.	4r	.	.
8A\J	.	.	.	.	.	.	.	.
!LO:LB:g=original	!	!	!	!	!	!	!	!
=35	=35	=35	=35	=35	=35	=35	=35	=35
8D\L	.	2ryy	2ryy	2ryy	2ryy	4f#\	non	2ryy
8E\	.	.	.	.	.	.	.	.
8F#\	.	.	.	.	.	4r	.	.
8D\J	.	.	.	.	.	.	.	.
=36	=36	=36	=36	=36	=36	=36	=36	=36
4AA/	.	2ryy	2ryy	2ryy	2ryy	4e\	non	2ryy
4E\	#3	.	.	.	.	8e\	non	.
.	.	.	.	.	.	8dd\	ti-	.
!	!	!	!	!	!	!LO:PB:g=original	!	!
=37	=37	=37	=37	=37	=37	=37	=37	=37
8A\L	.	2ryy	2ryy	2ryy	2ryy	8cc#\L	-me-	2ryy
8C#\	.	.	.	.	.	16b\L	.	.
.	.	.	.	.	.	16a\JJ	.	.
8D\	.	.	.	.	.	8b\L	.	.
8E\J	.	.	.	.	.	8g#X\J	.	.
!!linebreak:original
=38	=38	=38	=38	=38	=38	=38	=38	=38
8A\L	.	2ryy	2ryy	2ryy	2ryy	4a\	-bit	2ryy
8B\	.	.	.	.	.	.	.	.
8c#\	.	.	.	.	.	4r	.	.
8A\J	.	.	.	.	.	.	.	.
=39	=39	=39	=39	=39	=39	=39	=39	=39
8D\L	.	2ryy	2ryy	2ryy	2ryy	4f#\	non	2ryy
8E\	.	.	.	.	.	.	.	.
8F#\	.	.	.	.	.	4r	.	.
8D\J	.	.	.	.	.	.	.	.
=40	=40	=40	=40	=40	=40	=40	=40	=40
4AA/	.	2ryy	2ryy	2ryy	2ryy	4e\	non	2ryy
4E\	#	.	.	.	.	8e\	non	.
.	.	.	.	.	.	8dd\	ti-	.
!LO:LB:g=original	!	!	!	!	!	!	!	!
=41	=41	=41	=41	=41	=41	=41	=41	=41
8A\L	.	2ryy	2ryy	2ryy	2ryy	8cc#\L	-me-	2ryy
8C#\	.	.	.	.	.	16b\L	.	.
.	.	.	.	.	.	16a\JJ	.	.
8D\	.	.	.	.	.	4bW\	.	.
8E\J	#	.	.	.	.	.	.	.
!	!	!	!	!	!	!LO:LB:g=original	!	!
=42	=42	=42	=42	=42	=42	=42	=42	=42
!LO:TX:a:t=litor.	!	!	!	!	!	!	!	!
8A\L	.	2ryy	2ryy	2ryy	2ryy	4a\	-bit	2ryy
8B\	.	.	.	.	.	.	.	.
8c#\	.	.	.	.	.	4r	.	.
8A\J	.	.	.	.	.	.	.	.
=43	=43	=43	=43	=43	=43	=43	=43	=43
!	!	!	!	!	!	!LO:TX:b:t=3	!	!
!	!	!	!	!	!	!LO:N:vis=0	!	!
8B\L	.	2ryy	2ryy	2ryy	2ryy	1r	.	2ryy
8A\	.	.	.	.	.	.	.	.
8G#X\	.	.	.	.	.	.	.	.
8E\J	.	.	.	.	.	.	.	.
=44	=44	=44	=44	=44	=44	=44	=44	=44
8A\L	.	2ryy	2ryy	2ryy	2ryy	.	.	2ryy
8C#\	.	.	.	.	.	.	.	.
8D\	.	.	.	.	.	.	.	.
8E\J	#3	.	.	.	.	.	.	.
=45	=45	=45	=45	=45	=45	=45	=45	=45
4AA/	.	2ryy	2ryy	2ryy	2ryy	2r	.	2ryy
4r	.	.	.	.	.	.	.	.
=46	=46	=46	=46	=46	=46	=46	=46	=46
!LO:TX:a:t=Al.	!	!	!	!	!	!	!	!
8A\L	.	2ryy	2ryy	2ryy	2ryy	8a\	in	2ryy
8A\	.	.	.	.	.	4a\	me-	.
8A\	.	.	.	.	.	.	.	.
8A\J	.	.	.	.	.	8cc#\	.	.
!LO:LB:g=original	!	!	!	!	!	!	!	!
=47	=47	=47	=47	=47	=47	=47	=47	=47
8A\L	.	2ryy	2ryy	2ryy	2ryy	8a\	-mo-	2ryy
8A\	.	.	.	.	.	4a\	-ria	.
8A\	.	.	.	.	.	.	.	.
8C#\J	.	.	.	.	.	8cc#\	E-	.
=48	=48	=48	=48	=48	=48	=48	=48	=48
8D\L	6	2ryy	2ryy	2ryy	2ryy	[2b\	-ter-	2ryy
8C#\	.	.	.	.	.	.	.	.
8D\	.	.	.	.	.	.	.	.
8D#X\J	.	.	.	.	.	.	.	.
=49	=49	=49	=49	=49	=49	=49	=49	=49
8E\L	.	2ryy	2ryy	2ryy	2ryy	2b\_	.	2ryy
8D#X\	.	.	.	.	.	.	.	.
8E\	.	.	.	.	.	.	.	.
8C#\J	.	.	.	.	.	.	.	.
!	!	!	!	!	!	!LO:LB:g=original	!	!
=50	=50	=50	=50	=50	=50	=50	=50	=50
8D#X\L	6	2ryy	2ryy	2ryy	2ryy	2b\]	.	2ryy
8BB\	.	.	.	.	.	.	.	.
8C#\	.	.	.	.	.	.	.	.
8D#X\J	.	.	.	.	.	.	.	.
=51	=51	=51	=51	=51	=51	=51	=51	=51
4E\	#	2ryy	2ryy	2ryy	2ryy	4b\	-na	2ryy
4r	.	.	.	.	.	4r	.	.
!LO:LB:g=original	!	!	!	!	!	!	!	!
=52	=52	=52	=52	=52	=52	=52	=52	=52
.	.	.	.	.	.	8qqb/L	.	.
.	.	.	.	.	.	8qqcc#/J	.	.
8E\L	7 #	2ryy	2ryy	2ryy	2ryy	4dd\	e-	2ryy
8E\	.	.	.	.	.	.	.	.
8E\	6 4	.	.	.	.	4cc#\	-rit	.
8E\J	.	.	.	.	.	.	.	.
=53	=53	=53	=53	=53	=53	=53	=53	=53
8E\L	5 #3	2ryy	2ryy	2ryy	2ryy	4b\	ius-	2ryy
8E\	.	.	.	.	.	.	.	.
8E\	6 4	.	.	.	.	4a\	-tus	.
8E\J	.	.	.	.	.	.	.	.
=54	=54	=54	=54	=54	=54	=54	=54	=54
8E\L	.	2ryy	2ryy	2ryy	2ryy	4g#X\	e-	2ryy
8E\	5 #3	.	.	.	.	.	.	.
8F#\	.	.	.	.	.	8.a\L	-rit	.
8F#\J	.	.	.	.	.	.	.	.
.	.	.	.	.	.	32g#X\LL	.	.
.	.	.	.	.	.	32a\JJJ	.	.
!	!	!	!	!	!	!LO:LB:g=original	!	!
=55	=55	=55	=55	=55	=55	=55	=55	=55
8G#X\L	6	2ryy	2ryy	2ryy	2ryy	8b\L	ius-	2ryy
8G#\	.	.	.	.	.	8g#X\J	.	.
8G#\	.	.	.	.	.	4e\	-tus	.
8G#\J	.	.	.	.	.	.	.	.
=56	=56	=56	=56	=56	=56	=56	=56	=56
8G#X\L	6	2ryy	2ryy	2ryy	2ryy	8e\	ab	2ryy
8G#\	.	.	.	.	.	8f#\	au-	.
8G#\	.	.	.	.	.	[4g#X\	-di-	.
8G#\J	.	.	.	.	.	.	.	.
!LO:LB:g=original	!	!	!	!	!	!	!	!
=57	=57	=57	=57	=57	=57	=57	=57	=57
8G#X\L	.	2ryy	2ryy	2ryy	2ryy	8g#X\]	.	2ryy
8G#\	.	.	.	.	.	8a\	-ti-	.
8G#\	.	.	.	.	.	8b\	-o-	.
8G#\J	.	.	.	.	.	8cc#\	-ne	.
=58	=58	=58	=58	=58	=58	=58	=58	=58
8G#X\L	.	2ryy	2ryy	2ryy	2ryy	8b\L	ma-	2ryy
8G#\	.	.	.	.	.	8cc#\J	.	.
8G#\	.	.	.	.	.	[4dd\	-la	.
8G#\J	.	.	.	.	.	.	.	.
!!linebreak:original
!	!	!	!	!	!	!LO:LB:g=original	!	!
=59	=59	=59	=59	=59	=59	=59	=59	=59
8G#X\L	.	2ryy	2ryy	2ryy	2ryy	8dd\L]	.	2ryy
8G#\	.	.	.	.	.	8ee\J	.	.
8G#\	.	.	.	.	.	8dd\	non	.
8G#\J	.	.	.	.	.	8cc#\	ti-	.
=60	=60	=60	=60	=60	=60	=60	=60	=60
4G#X\	.	2ryy	2ryy	2ryy	2ryy	8b\L	-me-	2ryy
.	.	.	.	.	.	8cc#\J	.	.
8r	.	.	.	.	.	8b\L	-bit	.
8F#\	.	.	.	.	.	8a\J	.	.
=61	=61	=61	=61	=61	=61	=61	=61	=61
8E\L	#3	2ryy	2ryy	2ryy	2ryy	8g#X\L	non	2ryy
8D\	.	.	.	.	.	8f#\J	.	.
8C#\	.	.	.	.	.	8e\L	ti-	.
8BB\J	.	.	.	.	.	8d\J	.	.
!LO:PB:g=original	!	!	!	!	!	!	!	!
=62	=62	=62	=62	=62	=62	=62	=62	=62
8AA/L	.	2ryy	2ryy	2ryy	2ryy	4d\	-me-	2ryy
8AA/	.	.	.	.	.	.	.	.
8C#/	.	.	.	.	.	4c#\	-bit	.
8AA/J	.	.	.	.	.	.	.	.
!	!	!	!	!	!	!LO:LB:g=original	!	!
=63	=63	=63	=63	=63	=63	=63	=63	=63
8D\L	.	2ryy	2ryy	2ryy	2ryy	8a\	in	2ryy
8D\	.	.	.	.	.	4a\	me-	.
8D\	6	.	.	.	.	.	.	.
8D\J	.	.	.	.	.	8b\	.	.
=64	=64	=64	=64	=64	=64	=64	=64	=64
8AA/L	n7	2ryy	2ryy	2ryy	2ryy	8gn\	-mo-	2ryy
8AA/	.	.	.	.	.	4g\	-ria	.
8AA/	.	.	.	.	.	.	.	.
8AA/J	.	.	.	.	.	8a\	E-	.
=65	=65	=65	=65	=65	=65	=65	=65	=65
8AA/L	.	2ryy	2ryy	2ryy	2ryy	8.f#\L	-ter-	2ryy
8AA/	.	.	.	.	.	.	.	.
.	.	.	.	.	.	(32g\LL	.	.
.	.	.	.	.	.	32a\JJJ)	.	.
8AA/	.	.	.	.	.	8g\L	.	.
8AA/J	6 4	.	.	.	.	8f#\J	.	.
=66	=66	=66	=66	=66	=66	=66	=66	=66
8AA/L	6 4	2ryy	2ryy	2ryy	2ryy	4f#W\	.	2ryy
8AA/	.	.	.	.	.	.	.	.
8AA/	4 3	.	.	.	.	4e\	-na	.
8AA/J	.	.	.	.	.	.	.	.
!	!	!	!	!	!	!LO:LB:g=original	!	!
=67	=67	=67	=67	=67	=67	=67	=67	=67
8AA/L	.	2ryy	2ryy	2ryy	2ryy	8a\	e-	2ryy
8AA/	.	.	.	.	.	4a\	-rit	.
8AA/	.	.	.	.	.	.	.	.
8AA/J	.	.	.	.	.	8b\	.	.
!LO:LB:g=original	!	!	!	!	!	!	!	!
=68	=68	=68	=68	=68	=68	=68	=68	=68
*	*below	*	*	*	*	*	*	*
8AA/L	n7	2ryy	2ryy	2ryy	2ryy	8g\	e-	2ryy
8AA/	.	.	.	.	.	4g\	.	.
8AA/	.	.	.	.	.	.	.	.
8AA/J	.	.	.	.	.	8a\	.	.
!!pagebreak:original
=69	=69	=69	=69	=69	=69	=69	=69	=69
8AA/L	.	2ryy	2ryy	2ryy	2ryy	8f#\L	.	2ryy
8AA/	.	.	.	.	.	16g\L	.	.
.	.	.	.	.	.	16a\J	.	.
8AA/	.	.	.	.	.	8g\J	.	.
8AA/J	6 4	.	.	.	.	8f#\	-rit	.
=70	=70	=70	=70	=70	=70	=70	=70	=70
!LO:TX:t=P:problem:mixed beam	!	!	!	!	!	!	!	!
8AA/L	6 4	2ryy	2ryy	2ryy	2ryy	4f#\	ius-	2ryy
8A\	5 3	.	.	.	.	.	.	.
8A\	.	.	.	.	.	4e\	-tus	.
8Gn\J	.	.	.	.	.	.	.	.
!	!	!	!	!	!	!LO:LB:g=original	!	!
=71	=71	=71	=71	=71	=71	=71	=71	=71
*	*above	*	*	*	*	*	*	*
8F#\L	6	2ryy	2ryy	2ryy	2ryy	8a\	ab	2ryy
8F#\	.	.	.	.	.	16g\	au-	.
.	.	.	.	.	.	16f#\	-di-	.
8F#\	.	.	.	.	.	8e\	-ti-	.
8F#\J	.	.	.	.	.	8d\	-o-	.
=72	=72	=72	=72	=72	=72	=72	=72	=72
8F#\L	.	2ryy	2ryy	2ryy	2ryy	4d\	-ne	2ryy
8F#\	.	.	.	.	.	.	.	.
8F#\	.	.	.	.	.	4a\	.	.
8F#\J	.	.	.	.	.	.	.	.
=73	=73	=73	=73	=73	=73	=73	=73	=73
8G\L	.	2ryy	2ryy	2ryy	2ryy	16b\LL	ma-	2ryy
.	.	.	.	.	.	16cc#\	.	.
8G\	.	.	.	.	.	16dd\	.	.
.	.	.	.	.	.	16cc#\JJ	.	.
8G\	.	.	.	.	.	8b\	.	.
8G\J	.	.	.	.	.	8r	.	.
!LO:LB:g=original	!	!	!	!	!	!	!	!
=74	=74	=74	=74	=74	=74	=74	=74	=74
8E\L	n3	2ryy	2ryy	2ryy	2ryy	16g\LL	.	2ryy
.	.	.	.	.	.	16a\	.	.
8E\	.	.	.	.	.	16b\	.	.
.	.	.	.	.	.	16a\JJ	.	.
8E\	.	.	.	.	.	8g\	.	.
8E\J	.	.	.	.	.	8r	.	.
!	!	!	!	!	!	!LO:LB:g=original	!	!
=75	=75	=75	=75	=75	=75	=75	=75	=75
8F#\L	.	2ryy	2ryy	2ryy	2ryy	16a\LL	.	2ryy
.	.	.	.	.	.	16b\	.	.
8F#\	.	.	.	.	.	16cc#\	.	.
.	.	.	.	.	.	16b\JJ	.	.
8F#\	.	.	.	.	.	8a\	.	.
8F#\J	.	.	.	.	.	8r	.	.
=76	=76	=76	=76	=76	=76	=76	=76	=76
8D\L	.	2ryy	2ryy	2ryy	2ryy	16f#\LL	.	2ryy
.	.	.	.	.	.	16g\	.	.
8D\	.	.	.	.	.	16a\	.	.
.	.	.	.	.	.	16g\JJ	.	.
8D\	.	.	.	.	.	8f#\	.	.
8D\J	.	.	.	.	.	8r	.	.
=77	=77	=77	=77	=77	=77	=77	=77	=77
8E\L	n3	2ryy	2ryy	2ryy	2ryy	16g\LL	.	2ryy
.	.	.	.	.	.	16a\	.	.
8E\	.	.	.	.	.	16b\	.	.
.	.	.	.	.	.	16a\JJ	.	.
8E\	.	.	.	.	.	8g\	.	.
8E\J	.	.	.	.	.	8r	.	.
!!linebreak:original
=78	=78	=78	=78	=78	=78	=78	=78	=78
8C#\L	n	2ryy	2ryy	2ryy	2ryy	16e\LL	.	2ryy
.	.	.	.	.	.	16f#\	.	.
8C#\	.	.	.	.	.	16g\	.	.
.	.	.	.	.	.	16f#\JJ	.	.
8C#\	.	.	.	.	.	8e\	.	.
8C#\J	.	.	.	.	.	8r	.	.
!LO:LB:g=original	!	!	!	!	!	!LO:PB:g=original	!	!
=79	=79	=79	=79	=79	=79	=79	=79	=79
8D\L	.	2ryy	2ryy	2ryy	2ryy	8e\	.	2ryy
8d\	.	.	.	.	.	8r	.	.
8c#\	.	.	.	.	.	(8.e\L	.	.
8A\J	.	.	.	.	.	.	.	.
.	.	.	.	.	.	32f#\LL	.	.
.	.	.	.	.	.	32g\JJJ)	.	.
=80	=80	=80	=80	=80	=80	=80	=80	=80
8D\L	.	2ryy	2ryy	2ryy	2ryy	8f#\	.	2ryy
8d\	.	.	.	.	.	8r	.	.
8c#\	.	.	.	.	.	(8.e\L	.	.
8A\J	.	.	.	.	.	.	.	.
.	.	.	.	.	.	32f#\LL	.	.
.	.	.	.	.	.	32g\JJJ)	.	.
=81	=81	=81	=81	=81	=81	=81	=81	=81
8D\L	.	2ryy	2ryy	2ryy	2ryy	8f#\	.	2ryy
8d\	.	.	.	.	.	8r	.	.
8c#\	.	.	.	.	.	(8.e\L	.	.
8A\J	.	.	.	.	.	.	.	.
.	.	.	.	.	.	32f#\LL	.	.
.	.	.	.	.	.	32g\JJJ)	.	.
=82	=82	=82	=82	=82	=82	=82	=82	=82
8D\L	.	2ryy	2ryy	2ryy	2ryy	8f#\L	.	2ryy
8D\	.	.	.	.	.	8e\J	.	.
8D\	.	.	.	.	.	8d\	-la	.
8D\J	.	.	.	.	.	8r	.	.
!	!	!	!	!	!	!LO:LB:g=original	!	!
=83	=83	=83	=83	=83	=83	=83	=83	=83
8D\L	.	2ryy	2ryy	2ryy	2ryy	4a\	non	2ryy
8d\	.	.	.	.	.	.	.	.
8c#\	.	.	.	.	.	4a\	ti-	.
8A\J	.	.	.	.	.	.	.	.
!LO:LB:g=original	!	!	!	!	!	!	!	!
=84	=84	=84	=84	=84	=84	=84	=84	=84
8D\L	.	2ryy	2ryy	2ryy	2ryy	4dd\	-me-	2ryy
8d\	.	.	.	.	.	.	.	.
8c#\	.	.	.	.	.	4a\	-bit	.
8A\J	.	.	.	.	.	.	.	.
=85	=85	=85	=85	=85	=85	=85	=85	=85
8D\L	.	2ryy	2ryy	2ryy	2ryy	4a\	non	2ryy
8d\	.	.	.	.	.	.	.	.
8c#\	.	.	.	.	.	4a\	ti-	.
8A\J	.	.	.	.	.	.	.	.
=86	=86	=86	=86	=86	=86	=86	=86	=86
8D\L	.	2ryy	2ryy	2ryy	2ryy	4dd\	-me-	2ryy
8D\	.	.	.	.	.	.	.	.
8D\	.	.	.	.	.	4a\	-bit	.
8D\J	.	.	.	.	.	.	.	.
=87	=87	=87	=87	=87	=87	=87	=87	=87
8E\L	n3	2ryy	2ryy	2ryy	2ryy	8gn\	non	2ryy
8D\	.	.	.	.	.	4A/	.	.
8C#\	.	.	.	.	.	.	.	.
8AA\J	.	.	.	.	.	8g\	ti-	.
!!pagebreak:original
!	!	!	!	!	!	!LO:LB:g=original	!	!
=88	=88	=88	=88	=88	=88	=88	=88	=88
8D\L	.	2ryy	2ryy	2ryy	2ryy	8f#\	-me-	2ryy
8E\	.	.	.	.	.	4A/	.	.
8F#\	.	.	.	.	.	.	.	.
8D\J	.	.	.	.	.	8f#\	.	.
!LO:LB:g=original	!	!	!	!	!	!	!	!
=89	=89	=89	=89	=89	=89	=89	=89	=89
4G\	6	2ryy	2ryy	2ryy	2ryy	8e\L	.	2ryy
.	.	.	.	.	.	8d\J	.	.
4A\	.	.	.	.	.	8e\L	.	.
.	.	.	.	.	.	16d\L	.	.
.	.	.	.	.	.	16c#\JJ	.	.
=90	=90	=90	=90	=90	=90	=90	=90	=90
8D\L	.	2ryy	2ryy	2ryy	2ryy	4d\	-bit	2ryy
8E\	.	.	.	.	.	.	.	.
8F#\	.	.	.	.	.	4d\	non	.
8D\J	.	.	.	.	.	.	.	.
=91	=91	=91	=91	=91	=91	=91	=91	=91
8G\L	.	2ryy	2ryy	2ryy	2ryy	4d\	non	2ryy
8A\	.	.	.	.	.	.	.	.
8B\	.	.	.	.	.	4d\	ti-	.
8G\J	.	.	.	.	.	.	.	.
=92	=92	=92	=92	=92	=92	=92	=92	=92
4D\	.	2ryy	2ryy	2ryy	2ryy	4dd\	-me-	2ryy
8r	.	.	.	.	.	(16cc#\LL	.	.
.	.	.	.	.	.	16b\	.	.
8G\	.	.	.	.	.	16a\	.	.
.	.	.	.	.	.	16g\JJ)	.	.
!	!	!	!	!	!	!LO:LB:g=original	!	!
=93	=93	=93	=93	=93	=93	=93	=93	=93
!LO:TX:t=P:problem:mixed beam	!	!	!	!	!	!	!	!
8A\L	6 4	2ryy	2ryy	2ryy	2ryy	8f#\L	.	2ryy
8A\	5 3	.	.	.	.	16e\L	.	.
.	.	.	.	.	.	16d\JJ	.	.
8AA/	.	.	.	.	.	4eW\	.	.
8AA/J	.	.	.	.	.	.	.	.
=94	=94	=94	=94	=94	=94	=94	=94	=94
8D\L	.	2ryy	2ryy	2ryy	2ryy	4d\	-bit	2ryy
8E\	.	.	.	.	.	.	.	.
8F#\	.	.	.	.	.	4d\	non	.
8D\J	.	.	.	.	.	.	.	.
!LO:LB:g=original	!	!	!	!	!	!	!	!
=95	=95	=95	=95	=95	=95	=95	=95	=95
8G\L	.	2ryy	2ryy	2ryy	2ryy	4d\	non	2ryy
8A\	.	.	.	.	.	.	.	.
8B\	.	.	.	.	.	4d\	ti-	.
8G\J	.	.	.	.	.	.	.	.
=96	=96	=96	=96	=96	=96	=96	=96	=96
4D\	.	2ryy	2ryy	2ryy	2ryy	4dd\	-me-	2ryy
4r	.	.	.	.	.	16cc#\LL	.	.
.	.	.	.	.	.	16b\	.	.
.	.	.	.	.	.	16a\	.	.
.	.	.	.	.	.	16g\JJ	.	.
=97	=97	=97	=97	=97	=97	=97	=97	=97
8D\L	.	2ryy	2ryy	2ryy	2ryy	8f#\L	.	2ryy
8F#\	.	.	.	.	.	16e\L	.	.
.	.	.	.	.	.	16d\JJ	.	.
8G\	.	.	.	.	.	4eW\	.	.
8A\J	.	.	.	.	.	.	.	.
!!linebreak:original
!	!	!	!	!	!	!LO:LB:g=original	!	!
=98	=98	=98	=98	=98	=98	=98	=98	=98
4B\	.	2ryy	2ryy	2ryy	2ryy	4d\	-bit	2ryy
8d\L	.	.	.	.	.	8dd\	non	.
8c#\J	.	.	.	.	.	8cc#\	ti-	.
=99	=99	=99	=99	=99	=99	=99	=99	=99
8B\L	.	2ryy	2ryy	2ryy	2ryy	8b\L	-me-	2ryy
8A\	.	.	.	.	.	8a\J	.	.
8G\	.	.	.	.	.	8g\L	bit	.
8F#\J	.	.	.	.	.	8f#\J	.	.
=100	=100	=100	=100	=100	=100	=100	=100	=100
8G\L	.	2ryy	2ryy	2ryy	2ryy	8g\	non	2ryy
8B\J	.	.	.	.	.	8b\	ti-	.
4A\	.	.	.	.	.	4a\	-me-	.
!LO:LB:g=original	!	!	!	!	!	!	!	!
=101	=101	=101	=101	=101	=101	=101	=101	=101
!LO:TX:a:t=Rit.	!	!	!	!	!	!	!	!
8D\L	.	2ryy	2ryy	2ryy	2ryy	4d\	-bit	2ryy
8E\	.	.	.	.	.	.	.	.
!LO:TX:a:t=lo	!	!	!	!	!	!	!	!
8F#\	.	.	.	.	.	4r	.	.
8D\J	.	.	.	.	.	.	.	.
=102	=102	=102	=102	=102	=102	=102	=102	=102
!	!	!	!	!	!	!LO:TX:b:t=3	!	!
!	!	!	!	!	!	!LO:N:vis=0	!	!
8E\L	.	2ryy	2ryy	2ryy	2ryy	1r	.	2ryy
8D\	.	.	.	.	.	.	.	.
8C#\	.	.	.	.	.	.	.	.
8AA\J	.	.	.	.	.	.	.	.
=103	=103	=103	=103	=103	=103	=103	=103	=103
8D\L	.	2ryy	2ryy	2ryy	2ryy	.	.	2ryy
8F#\	.	.	.	.	.	.	.	.
8G\	.	.	.	.	.	.	.	.
8A\J	.	.	.	.	.	.	.	.
=104	=104	=104	=104	=104	=104	=104	=104	=104
4D\	.	2ryy	2ryy	2ryy	2ryy	2r	.	2ryy
4r	.	.	.	.	.	.	.	.
==	==	==	==	==	==	==	==	==
*-	*-	*-	*-	*-	*-	*-	*-	*-
!!!system-decoration: [(s1,s2)][(s3,s4,s5,s6)][(s7)]
!!!EED: Leszek Kubiak
!!!EST: 2021-03-29
!!!AIN: 2 alto 1 empty 1 organ 1 tenor 2 vox
!!!ENC: Tomasz Grochalski
!!!END: 2021-03-17
